svg/color/beluga.svg

<?xml version="1.0" encoding="UTF-8" ?>
<!DOCTYPE svg PUBLIC "-//W3C//DTD SVG 1.1//EN" "http://www.w3.org/Graphics/SVG/1.1/DTD/svg11.dtd">
<svg width="250pt" height="250pt" viewBox="0 0 250 250" version="1.1" xmlns="http://www.w3.org/2000/svg">
<g id="#ffffffff">
<path fill="#ffffff" opacity="1.00" d=" M 0.00 0.00 L 123.13 0.00 C 94.08 0.44 65.28 11.33 43.32 30.37 C 17.05 52.93 0.93 86.72 0.00 121.34 L 0.00 0.00 Z" />
<path fill="#ffffff" opacity="1.00" d=" M 126.79 0.00 L 250.00 0.00 L 250.00 123.30 C 249.69 88.01 233.43 53.36 206.68 30.38 C 184.69 11.33 155.87 0.41 126.79 0.00 Z" />
<path fill="#ffffff" opacity="1.00" d=" M 219.11 207.23 C 238.52 185.19 249.62 156.11 250.00 126.76 L 250.00 250.00 L 127.77 250.00 C 162.42 249.28 196.43 233.48 219.11 207.23 Z" />
<path fill="#ffffff" opacity="1.00" d=" M 0.00 127.68 C 0.66 162.60 16.72 196.99 43.39 219.60 C 65.26 238.81 94.17 249.53 123.21 250.00 L 0.00 250.00 L 0.00 127.68 Z" />
<path fill="#ffffff" opacity="1.00" d=" M 73.17 192.38 C 76.82 192.81 81.27 191.20 84.28 193.90 C 86.07 195.80 84.70 198.10 83.49 199.86 C 86.17 200.57 86.38 204.02 85.08 206.02 C 81.66 208.58 77.11 207.14 73.18 207.52 C 73.18 202.47 73.18 197.43 73.17 192.38 M 76.34 195.28 C 76.34 196.36 76.35 197.44 76.35 198.53 C 78.06 198.47 79.77 198.42 81.47 198.33 C 81.51 197.39 81.55 196.45 81.60 195.51 C 79.85 195.39 78.09 195.33 76.34 195.28 M 76.34 201.25 C 76.34 202.38 76.35 203.52 76.35 204.65 C 78.38 204.60 80.40 204.52 82.43 204.36 C 82.43 203.43 82.45 202.50 82.47 201.57 C 80.43 201.39 78.39 201.30 76.34 201.25 Z" />
<path fill="#ffffff" opacity="1.00" d=" M 89.71 192.41 C 93.56 192.37 97.41 192.37 101.26 192.41 C 101.25 193.39 101.24 194.36 101.24 195.34 C 98.55 195.35 95.86 195.35 93.17 195.35 C 93.17 196.37 93.17 197.39 93.18 198.42 C 95.55 198.41 97.93 198.41 100.30 198.43 C 100.30 199.18 100.28 200.66 100.28 201.40 C 97.91 201.41 95.54 201.40 93.17 201.40 C 93.17 202.45 93.17 203.50 93.18 204.56 C 95.90 204.55 98.62 204.55 101.34 204.55 C 101.34 205.29 101.35 206.77 101.35 207.51 C 97.47 207.51 93.60 207.51 89.72 207.50 C 89.73 202.47 89.73 197.44 89.71 192.41 Z" />
<path fill="#ffffff" opacity="1.00" d=" M 105.37 192.39 C 106.47 192.38 107.56 192.37 108.66 192.37 C 108.66 196.41 108.66 200.46 108.65 204.50 C 111.21 204.52 113.76 204.52 116.32 204.53 C 116.32 205.27 116.32 206.75 116.33 207.49 C 112.68 207.51 109.03 207.50 105.38 207.52 C 105.37 202.48 105.38 197.43 105.37 192.39 Z" />
<path fill="#ffffff" opacity="1.00" d=" M 119.57 192.41 C 120.65 192.39 121.74 192.37 122.83 192.36 C 122.90 196.37 122.34 200.51 123.80 204.35 C 125.27 204.43 126.74 204.52 128.20 204.61 C 130.47 200.94 129.14 196.45 129.47 192.38 C 130.56 192.38 131.65 192.37 132.75 192.37 C 132.64 196.21 133.06 200.08 132.42 203.88 C 130.60 209.40 120.91 209.04 119.78 203.21 C 119.33 199.63 119.67 196.00 119.57 192.41 Z" />
<path fill="#ffffff" opacity="1.00" d=" M 138.66 194.62 C 141.73 191.20 147.18 191.66 150.76 193.99 C 149.95 194.87 149.14 195.76 148.33 196.64 C 145.51 193.69 139.62 195.60 140.21 200.01 C 139.77 204.12 144.33 205.44 147.55 204.47 C 147.65 203.52 147.74 202.58 147.85 201.63 C 147.00 201.64 145.31 201.64 144.47 201.64 C 144.48 200.91 144.50 199.46 144.51 198.73 C 146.64 198.72 148.78 198.72 150.92 198.70 C 151.26 201.19 151.34 203.74 150.56 206.17 C 147.24 207.77 142.94 208.65 139.74 206.33 C 135.99 203.74 135.53 197.87 138.66 194.62 Z" />
<path fill="#ffffff" opacity="1.00" d=" M 160.60 192.23 C 161.65 192.28 162.71 192.34 163.77 192.40 C 165.76 197.46 168.07 202.40 170.05 207.47 C 168.93 207.50 167.81 207.52 166.69 207.55 C 166.22 206.44 165.74 205.33 165.27 204.22 C 163.13 204.22 160.99 204.23 158.85 204.25 C 158.17 206.63 156.90 208.39 154.09 207.58 C 156.18 202.43 158.39 197.33 160.60 192.23 M 161.89 196.64 C 161.27 198.17 160.68 199.70 160.13 201.25 C 161.41 201.24 162.69 201.24 163.97 201.23 C 163.49 199.61 162.79 198.07 161.89 196.64 Z" />
</g>
<g id="#000000ff">
<path fill="#000000" opacity="1.00" d=" M 123.13 0.00 L 126.79 0.00 C 155.87 0.41 184.69 11.33 206.68 30.38 C 233.43 53.36 249.69 88.01 250.00 123.30 L 250.00 126.76 C 249.62 156.11 238.52 185.19 219.11 207.23 C 196.43 233.48 162.42 249.28 127.77 250.00 L 123.21 250.00 C 94.17 249.53 65.26 238.81 43.39 219.60 C 16.72 196.99 0.66 162.60 0.00 127.68 L 0.00 121.34 C 0.93 86.72 17.05 52.93 43.32 30.37 C 65.28 11.33 94.08 0.44 123.13 0.00 M 150.28 52.29 C 151.12 56.76 150.51 61.26 148.75 65.43 C 147.07 69.38 147.79 73.70 149.19 77.60 C 143.80 77.00 140.50 81.75 136.46 84.34 C 133.37 86.53 129.58 87.24 125.90 87.73 C 128.73 92.13 133.51 95.79 138.98 95.36 C 143.24 95.28 146.72 91.88 151.04 92.33 C 154.29 92.36 157.13 94.64 158.65 97.40 C 162.51 104.15 162.30 112.87 158.55 119.62 C 154.86 126.18 148.74 131.18 141.87 134.14 C 132.77 138.15 121.62 137.35 113.36 131.72 C 106.64 127.12 100.37 121.89 93.60 117.37 C 89.68 114.85 84.61 113.26 80.09 115.13 C 75.98 117.07 73.46 121.17 69.49 123.39 C 66.75 124.60 66.58 128.51 68.71 130.39 C 71.21 132.45 73.90 134.32 75.98 136.84 C 72.31 136.67 68.61 136.26 64.96 136.85 C 65.02 139.58 67.35 141.16 69.03 142.97 C 78.52 152.72 89.33 161.48 101.83 167.06 C 107.93 169.70 114.42 171.85 121.14 171.78 C 118.18 167.90 115.30 163.86 113.87 159.14 C 112.48 154.61 110.03 150.54 107.23 146.76 C 112.95 150.94 115.24 158.04 119.30 163.60 C 123.11 169.14 128.32 174.17 134.97 175.97 C 143.46 178.54 152.49 176.69 160.74 174.10 C 160.65 173.06 159.28 172.91 158.66 172.27 C 151.60 167.70 148.08 158.44 139.38 156.29 C 145.41 155.22 150.25 159.57 154.26 163.41 C 166.71 155.24 175.58 141.71 177.57 126.90 C 179.94 112.37 175.67 97.00 166.41 85.59 C 160.92 78.97 161.49 69.99 159.68 62.08 C 158.59 57.33 154.46 54.27 150.28 52.29 M 89.72 72.76 C 76.25 83.93 68.69 101.62 69.54 119.07 C 70.82 118.56 72.65 117.86 72.22 116.07 C 71.90 101.18 78.59 86.47 89.49 76.43 C 99.75 66.66 113.98 61.50 128.08 61.73 C 134.02 62.01 139.78 63.50 145.52 64.95 C 145.59 64.36 145.73 63.19 145.80 62.61 C 127.03 55.82 104.85 59.65 89.72 72.76 M 73.17 192.38 C 73.18 197.43 73.18 202.47 73.18 207.52 C 77.11 207.14 81.66 208.58 85.08 206.02 C 86.38 204.02 86.17 200.57 83.49 199.86 C 84.70 198.10 86.07 195.80 84.28 193.90 C 81.27 191.20 76.82 192.81 73.17 192.38 M 89.71 192.41 C 89.73 197.44 89.73 202.47 89.72 207.50 C 93.60 207.51 97.47 207.51 101.35 207.51 C 101.35 206.77 101.34 205.29 101.34 204.55 C 98.62 204.55 95.90 204.55 93.18 204.56 C 93.17 203.50 93.17 202.45 93.17 201.40 C 95.54 201.40 97.91 201.41 100.28 201.40 C 100.28 200.66 100.30 199.18 100.30 198.43 C 97.93 198.41 95.55 198.41 93.18 198.42 C 93.17 197.39 93.17 196.37 93.17 195.35 C 95.86 195.35 98.55 195.35 101.24 195.34 C 101.24 194.36 101.25 193.39 101.26 192.41 C 97.41 192.37 93.56 192.37 89.71 192.41 M 105.37 192.39 C 105.38 197.43 105.37 202.48 105.38 207.52 C 109.03 207.50 112.68 207.51 116.33 207.49 C 116.32 206.75 116.32 205.27 116.32 204.53 C 113.76 204.52 111.21 204.52 108.65 204.50 C 108.66 200.46 108.66 196.41 108.66 192.37 C 107.56 192.37 106.47 192.38 105.37 192.39 M 119.57 192.41 C 119.67 196.00 119.33 199.63 119.78 203.21 C 120.91 209.04 130.60 209.40 132.42 203.88 C 133.06 200.08 132.64 196.21 132.75 192.37 C 131.65 192.37 130.56 192.38 129.47 192.38 C 129.14 196.45 130.47 200.94 128.20 204.61 C 126.74 204.52 125.27 204.43 123.80 204.35 C 122.34 200.51 122.90 196.37 122.83 192.36 C 121.74 192.37 120.65 192.39 119.57 192.41 M 138.66 194.62 C 135.53 197.87 135.99 203.74 139.74 206.33 C 142.94 208.65 147.24 207.77 150.56 206.17 C 151.34 203.74 151.26 201.19 150.92 198.70 C 148.78 198.72 146.64 198.72 144.51 198.73 C 144.50 199.46 144.48 200.91 144.47 201.64 C 145.31 201.64 147.00 201.64 147.85 201.63 C 147.74 202.58 147.65 203.52 147.55 204.47 C 144.33 205.44 139.77 204.12 140.21 200.01 C 139.62 195.60 145.51 193.69 148.33 196.64 C 149.14 195.76 149.95 194.87 150.76 193.99 C 147.18 191.66 141.73 191.20 138.66 194.62 M 160.60 192.23 C 158.39 197.33 156.18 202.43 154.09 207.58 C 156.90 208.39 158.17 206.63 158.85 204.25 C 160.99 204.23 163.13 204.22 165.27 204.22 C 165.74 205.33 166.22 206.44 166.69 207.55 C 167.81 207.52 168.93 207.50 170.05 207.47 C 168.07 202.40 165.76 197.46 163.77 192.40 C 162.71 192.34 161.65 192.28 160.60 192.23 Z" />
<path fill="#000000" opacity="1.00" d=" M 76.34 195.28 C 78.09 195.33 79.85 195.39 81.60 195.51 C 81.55 196.45 81.51 197.39 81.47 198.33 C 79.77 198.42 78.06 198.47 76.35 198.53 C 76.35 197.44 76.34 196.36 76.34 195.28 Z" />
<path fill="#000000" opacity="1.00" d=" M 161.89 196.64 C 162.79 198.07 163.49 199.61 163.97 201.23 C 162.69 201.24 161.41 201.24 160.13 201.25 C 160.68 199.70 161.27 198.17 161.89 196.64 Z" />
<path fill="#000000" opacity="1.00" d=" M 76.34 201.25 C 78.39 201.30 80.43 201.39 82.47 201.57 C 82.45 202.50 82.43 203.43 82.43 204.36 C 80.40 204.52 78.38 204.60 76.35 204.65 C 76.35 203.52 76.34 202.38 76.34 201.25 Z" />
</g>
<g id="#9e76d9ff">
<path fill="#9e76d9" opacity="1.00" d=" M 150.28 52.29 C 154.46 54.27 158.59 57.33 159.68 62.08 C 161.49 69.99 160.92 78.97 166.41 85.59 C 175.67 97.00 179.94 112.37 177.57 126.90 C 175.58 141.71 166.71 155.24 154.26 163.41 C 150.25 159.57 145.41 155.22 139.38 156.29 C 148.08 158.44 151.60 167.70 158.66 172.27 C 159.28 172.91 160.65 173.06 160.74 174.10 C 152.49 176.69 143.46 178.54 134.97 175.97 C 128.32 174.17 123.11 169.14 119.30 163.60 C 115.24 158.04 112.95 150.94 107.23 146.76 C 110.03 150.54 112.48 154.61 113.87 159.14 C 115.30 163.86 118.18 167.90 121.14 171.78 C 114.42 171.85 107.93 169.70 101.83 167.06 C 89.33 161.48 78.52 152.72 69.03 142.97 C 67.35 141.16 65.02 139.58 64.96 136.85 C 68.61 136.26 72.31 136.67 75.98 136.84 C 73.90 134.32 71.21 132.45 68.71 130.39 C 66.58 128.51 66.75 124.60 69.49 123.39 C 73.46 121.17 75.98 117.07 80.09 115.13 C 84.61 113.26 89.68 114.85 93.60 117.37 C 100.37 121.89 106.64 127.12 113.36 131.72 C 121.62 137.35 132.77 138.15 141.87 134.14 C 148.74 131.18 154.86 126.18 158.55 119.62 C 162.30 112.87 162.51 104.15 158.65 97.40 C 157.13 94.64 154.29 92.36 151.04 92.33 C 146.72 91.88 143.24 95.28 138.98 95.36 C 133.51 95.79 128.73 92.13 125.90 87.73 C 129.58 87.24 133.37 86.53 136.46 84.34 C 140.50 81.75 143.80 77.00 149.19 77.60 C 147.79 73.70 147.07 69.38 148.75 65.43 C 150.51 61.26 151.12 56.76 150.28 52.29 Z" />
<path fill="#9e76d9" opacity="1.00" d=" M 89.72 72.76 C 104.85 59.65 127.03 55.82 145.80 62.61 C 145.73 63.19 145.59 64.36 145.52 64.95 C 139.78 63.50 134.02 62.01 128.08 61.73 C 113.98 61.50 99.75 66.66 89.49 76.43 C 78.59 86.47 71.90 101.18 72.22 116.07 C 72.65 117.86 70.82 118.56 69.54 119.07 C 68.69 101.62 76.25 83.93 89.72 72.76 Z" />
</g>
</svg>

<?xml version="1.0" encoding="utf-8"?>
<!-- Generator: Adobe Illustrator 26.0.3, SVG Export Plug-In . SVG Version: 6.00 Build 0)  -->
<svg version="1.1" id="Layer_1" xmlns="http://www.w3.org/2000/svg" xmlns:xlink="http://www.w3.org/1999/xlink" x="0px" y="0px"
	 viewBox="0 0 250 250" style="enable-background:new 0 0 250 250;" xml:space="preserve">
<style type="text/css">
	.st0{fill:#FFFFFF;}
	.st1{fill:#9E76D9;}
</style>
<g id="_x23_ffffffff">
	<path class="st0" d="M73.2,192.4c3.7,0.4,8.1-1.2,11.1,1.5c1.8,1.9,0.4,4.2-0.8,6c2.7,0.7,2.9,4.2,1.6,6.2c-3.4,2.6-8,1.1-11.9,1.5
		C73.2,202.5,73.2,197.4,73.2,192.4 M76.3,195.3c0,1.1,0,2.2,0,3.2c1.7-0.1,3.4-0.1,5.1-0.2c0-0.9,0.1-1.9,0.1-2.8
		C79.8,195.4,78.1,195.3,76.3,195.3 M76.3,201.2c0,1.1,0,2.3,0,3.4c2,0,4.1-0.1,6.1-0.3c0-0.9,0-1.9,0-2.8
		C80.4,201.4,78.4,201.3,76.3,201.2z"/>
	<path class="st0" d="M89.7,192.4c3.8,0,7.7,0,11.6,0c0,1,0,1.9,0,2.9c-2.7,0-5.4,0-8.1,0c0,1,0,2,0,3.1c2.4,0,4.8,0,7.1,0
		c0,0.8,0,2.2,0,3c-2.4,0-4.7,0-7.1,0c0,1.1,0,2.1,0,3.2c2.7,0,5.4,0,8.2,0c0,0.7,0,2.2,0,3c-3.9,0-7.8,0-11.6,0
		C89.7,202.5,89.7,197.4,89.7,192.4z"/>
	<path class="st0" d="M105.4,192.4c1.1,0,2.2,0,3.3,0c0,4,0,8.1,0,12.1c2.6,0,5.1,0,7.7,0c0,0.7,0,2.2,0,3c-3.7,0-7.3,0-11,0
		C105.4,202.5,105.4,197.4,105.4,192.4z"/>
	<path class="st0" d="M119.6,192.4c1.1,0,2.2,0,3.3-0.1c0.1,4-0.5,8.1,1,12c1.5,0.1,2.9,0.2,4.4,0.3c2.3-3.7,0.9-8.2,1.3-12.2
		c1.1,0,2.2,0,3.3,0c-0.1,3.8,0.3,7.7-0.3,11.5c-1.8,5.5-11.5,5.2-12.6-0.7C119.3,199.6,119.7,196,119.6,192.4z"/>
	<path class="st0" d="M138.7,194.6c3.1-3.4,8.5-3,12.1-0.6c-0.8,0.9-1.6,1.8-2.4,2.6c-2.8-2.9-8.7-1-8.1,3.4
		c-0.4,4.1,4.1,5.4,7.3,4.5c0.1-0.9,0.2-1.9,0.3-2.8c-0.9,0-2.5,0-3.4,0c0-0.7,0-2.2,0-2.9c2.1,0,4.3,0,6.4,0c0.3,2.5,0.4,5-0.4,7.5
		c-3.3,1.6-7.6,2.5-10.8,0.2C136,203.7,135.5,197.9,138.7,194.6z"/>
	<path class="st0" d="M160.6,192.2c1,0.1,2.1,0.1,3.2,0.2c2,5.1,4.3,10,6.3,15.1c-1.1,0-2.2,0.1-3.4,0.1c-0.5-1.1-0.9-2.2-1.4-3.3
		c-2.1,0-4.3,0-6.4,0c-0.7,2.4-2,4.1-4.8,3.3C156.2,202.4,158.4,197.3,160.6,192.2 M161.9,196.6c-0.6,1.5-1.2,3.1-1.8,4.6
		c1.3,0,2.6,0,3.8,0C163.5,199.6,162.8,198.1,161.9,196.6z"/>
</g>
<g id="_x23_000000ff">
	<path d="M123.1,0h3.7c29.1,0.4,57.9,11.3,79.9,30.4c26.8,23,43,57.6,43.3,92.9v3.5c-0.4,29.3-11.5,58.4-30.9,80.5
		c-22.7,26.2-56.7,42.1-91.3,42.8h-4.6c-29-0.5-57.9-11.2-79.8-30.4C16.7,197,0.7,162.6,0,127.7v-6.3c0.9-34.6,17-68.4,43.3-91
		C65.3,11.3,94.1,0.4,123.1,0 M150.3,52.3c0.8,4.5,0.2,9-1.5,13.1c-1.7,3.9-1,8.3,0.4,12.2c-5.4-0.6-8.7,4.2-12.7,6.7
		c-3.1,2.2-6.9,2.9-10.6,3.4c2.8,4.4,7.6,8.1,13.1,7.6c4.3-0.1,7.7-3.5,12.1-3c3.2,0,6.1,2.3,7.6,5.1c3.9,6.8,3.7,15.5-0.1,22.2
		c-3.7,6.6-9.8,11.6-16.7,14.5c-9.1,4-20.2,3.2-28.5-2.4c-6.7-4.6-13-9.8-19.8-14.3c-3.9-2.5-9-4.1-13.5-2.2
		c-4.1,1.9-6.6,6-10.6,8.3c-2.7,1.2-2.9,5.1-0.8,7c2.5,2.1,5.2,3.9,7.3,6.4c-3.7-0.2-7.4-0.6-11,0c0.1,2.7,2.4,4.3,4.1,6.1
		c9.5,9.8,20.3,18.5,32.8,24.1c6.1,2.6,12.6,4.8,19.3,4.7c-3-3.9-5.8-7.9-7.3-12.6c-1.4-4.5-3.8-8.6-6.6-12.4
		c5.7,4.2,8,11.3,12.1,16.8c3.8,5.5,9,10.6,15.7,12.4c8.5,2.6,17.5,0.7,25.8-1.9c-0.1-1-1.5-1.2-2.1-1.8c-7.1-4.6-10.6-13.8-19.3-16
		c6-1.1,10.9,3.3,14.9,7.1c12.5-8.2,21.3-21.7,23.3-36.5c2.4-14.5-1.9-29.9-11.2-41.3c-5.5-6.6-4.9-15.6-6.7-23.5
		C158.6,57.3,154.5,54.3,150.3,52.3 M89.7,72.8c-13.5,11.2-21,28.9-20.2,46.3c1.3-0.5,3.1-1.2,2.7-3c-0.3-14.9,6.4-29.6,17.3-39.6
		c10.3-9.8,24.5-14.9,38.6-14.7c5.9,0.3,11.7,1.8,17.4,3.2c0.1-0.6,0.2-1.8,0.3-2.3C127,55.8,104.8,59.7,89.7,72.8 M73.2,192.4
		c0,5,0,10.1,0,15.1c3.9-0.4,8.5,1.1,11.9-1.5c1.3-2,1.1-5.4-1.6-6.2c1.2-1.8,2.6-4.1,0.8-6C81.3,191.2,76.8,192.8,73.2,192.4
		 M89.7,192.4c0,5,0,10.1,0,15.1c3.9,0,7.8,0,11.6,0c0-0.7,0-2.2,0-3c-2.7,0-5.4,0-8.2,0c0-1.1,0-2.1,0-3.2c2.4,0,4.7,0,7.1,0
		c0-0.7,0-2.2,0-3c-2.4,0-4.8,0-7.1,0c0-1,0-2.1,0-3.1c2.7,0,5.4,0,8.1,0c0-1,0-1.9,0-2.9C97.4,192.4,93.6,192.4,89.7,192.4
		 M105.4,192.4c0,5,0,10.1,0,15.1c3.7,0,7.3,0,11,0c0-0.7,0-2.2,0-3c-2.6,0-5.1,0-7.7,0c0-4,0-8.1,0-12.1
		C107.6,192.4,106.5,192.4,105.4,192.4 M119.6,192.4c0.1,3.6-0.2,7.2,0.2,10.8c1.1,5.8,10.8,6.2,12.6,0.7c0.6-3.8,0.2-7.7,0.3-11.5
		c-1.1,0-2.2,0-3.3,0c-0.3,4.1,1,8.6-1.3,12.2c-1.5-0.1-2.9-0.2-4.4-0.3c-1.5-3.8-0.9-8-1-12C121.7,192.4,120.7,192.4,119.6,192.4
		 M138.7,194.6c-3.1,3.2-2.7,9.1,1.1,11.7c3.2,2.3,7.5,1.4,10.8-0.2c0.8-2.4,0.7-5,0.4-7.5c-2.1,0-4.3,0-6.4,0c0,0.7,0,2.2,0,2.9
		c0.8,0,2.5,0,3.4,0c-0.1,0.9-0.2,1.9-0.3,2.8c-3.2,1-7.8-0.4-7.3-4.5c-0.6-4.4,5.3-6.3,8.1-3.4c0.8-0.9,1.6-1.8,2.4-2.6
		C147.2,191.7,141.7,191.2,138.7,194.6 M160.6,192.2c-2.2,5.1-4.4,10.2-6.5,15.4c2.8,0.8,4.1-0.9,4.8-3.3c2.1,0,4.3,0,6.4,0
		c0.5,1.1,0.9,2.2,1.4,3.3c1.1,0,2.2-0.1,3.4-0.1c-2-5.1-4.3-10-6.3-15.1C162.7,192.3,161.6,192.3,160.6,192.2z"/>
	<path d="M76.3,195.3c1.8,0.1,3.5,0.1,5.3,0.2c0,0.9-0.1,1.9-0.1,2.8c-1.7,0.1-3.4,0.1-5.1,0.2C76.3,197.4,76.3,196.4,76.3,195.3z"
		/>
	<path d="M161.9,196.6c0.9,1.4,1.6,3,2.1,4.6c-1.3,0-2.6,0-3.8,0C160.7,199.7,161.3,198.2,161.9,196.6z"/>
	<path d="M76.3,201.2c2.1,0.1,4.1,0.1,6.1,0.3c0,0.9,0,1.9,0,2.8c-2,0.2-4.1,0.2-6.1,0.3C76.3,203.5,76.3,202.4,76.3,201.2z"/>
</g>
<g id="_x23_9e76d9ff">
	<path class="st1" d="M150.3,52.3c4.2,2,8.3,5,9.4,9.8c1.8,7.9,1.2,16.9,6.7,23.5c9.3,11.4,13.5,26.8,11.2,41.3
		c-2,14.8-10.9,28.3-23.3,36.5c-4-3.8-8.8-8.2-14.9-7.1c8.7,2.2,12.2,11.4,19.3,16c0.6,0.6,2,0.8,2.1,1.8
		c-8.2,2.6-17.3,4.4-25.8,1.9c-6.6-1.8-11.9-6.8-15.7-12.4c-4.1-5.6-6.4-12.7-12.1-16.8c2.8,3.8,5.2,7.9,6.6,12.4
		c1.4,4.7,4.3,8.8,7.3,12.6c-6.7,0.1-13.2-2.1-19.3-4.7C89.3,161.5,78.5,152.7,69,143c-1.7-1.8-4-3.4-4.1-6.1c3.7-0.6,7.3-0.2,11,0
		c-2.1-2.5-4.8-4.4-7.3-6.4c-2.1-1.9-2-5.8,0.8-7c4-2.2,6.5-6.3,10.6-8.3c4.5-1.9,9.6-0.3,13.5,2.2c6.8,4.5,13,9.8,19.8,14.3
		c8.3,5.6,19.4,6.4,28.5,2.4c6.9-3,13-8,16.7-14.5c3.8-6.8,4-15.5,0.1-22.2c-1.5-2.8-4.4-5-7.6-5.1c-4.3-0.5-7.8,2.9-12.1,3
		c-5.5,0.4-10.2-3.2-13.1-7.6c3.7-0.5,7.5-1.2,10.6-3.4c4-2.6,7.3-7.3,12.7-6.7c-1.4-3.9-2.1-8.2-0.4-12.2
		C150.5,61.3,151.1,56.8,150.3,52.3z"/>
	<path class="st1" d="M89.7,72.8c15.1-13.1,37.3-16.9,56.1-10.2c-0.1,0.6-0.2,1.8-0.3,2.3c-5.7-1.4-11.5-2.9-17.4-3.2
		c-14.1-0.2-28.3,4.9-38.6,14.7c-10.9,10-17.6,24.8-17.3,39.6c0.4,1.8-1.4,2.5-2.7,3C68.7,101.6,76.2,83.9,89.7,72.8z"/>
</g>
</svg>
